X: 32657
T: Pluto's In Scorpio
R: jig
M: 6/8
K: Dminor
A,DE FGE|"*S*"FDE CDA,|B,DF ABG-|GFE ECD|
A,DE FGE|FDE CDA,|B,DF AB^c|BAG FED:|
|:dDD EDF|GEF GAc|dDD EDF|GED A,CD|
dDD EDF|GEF GAc|1 dAc GBA|GEC DAc:|
[2 EA^c ded|^cba gfe||dAG FG"D.S."E||

